X:1
T:Fisher's Hornpipe 50
O: James Fishar 1778
S:John Greenwood MS. c. 1780
M:C
L:1/8
K:G
gdBd cedc | BdBd cedc | BGBG cAcA | BGBG
AFED | gdBd cedc | BdBd cedc | Bgec' bgaf |
g2g2g4 :: afdf afc'a | bgdg bgd'b | afdf afc'a |
agfe d4 | ecGc ecge | dBGB dBgd | ecge dBcA | G2G2G4 :|
